!!!!SEGMENT: pl-gd--ee-1638--006-005_marenzio-luca--il-quinto-libro-de-madrigalia-a-cinque-voci-non-vide-l-mondo.krn
!!!cenid: 15xx:887
!!!COM: Marenzio, Luca
!!!COM-rismid: pe30003955
!!!CDT: ~1553-1599/08/22
!!!CNT: Italian
!!!GTL: Il Quinto libro de madrigalia a cinque voci
!!!OTL: Non vide'l mondo
!!!OMV: 005
!!!PDT: 1585
!!!AGN:
!!!SMS-siglum: PL-GD
!!!SMS-shelfmark: Ee 1638
!!!SMS-variant:
!!!SMS-altvar:
!!!SMS-shelfwork: 006-005 G
!!!NIFC-rismid: 990039296
!!!URL-scan: https://repozytorium.nifc.pl/islandora/object/pl-gd%3A57883/datastream/PDF/view
!!!ONB-nifc: UWAGA: utwór na stronach: Canto: s. 680, Alto: s. 528, Tenore: s. 376, Basso: s.222-236, Quinto: s. 69-84. Uwaga: utwory podzielone wg tytułów w spisach treści dostępnych na końcu każdej księgi głosowej.
!!!AIN: 2 alto 1 bass 1 soprn 1 tenor
!!!key: G:mix
**kern	**text	**kern	**text	**kern	**text	**kern	**text	**kern	**text
*part5	*part5	*part4	*part4	*part3	*part3	*part2	*part2	*part1	*part1
*staff5	*staff5	*staff4	*staff4	*staff3	*staff3	*staff2	*staff2	*staff1	*staff1
*I"BASSO	*	*I"TENORE	*	*I"QVINTO	*	*I"ALTO	*	*I"CANTO	*
*I'B	*	*I'T	*	*I'V 5	*	*I'A	*	*I'S	*
*Ibass	*	*Itenor	*	*Ialto	*	*Ialto	*	*Isoprn	*
*ICvox	*	*ICvox	*	*ICvox	*	*ICvox	*	*ICvox	*
*clefC4	*	*clefC3	*	*clefC3	*	*clefC2	*	*clefG2	*
*k[]	*	*k[]	*	*k[]	*	*k[]	*	*k[]	*
*G:mix	*	*G:mix	*	*G:mix	*	*G:mix	*	*G:mix	*
*M2/1	*	*M2/1	*	*M2/1	*	*M2/1	*	*M2/1	*
*met(C)	*	*met(C)	*	*met(C)	*	*met(C)	*	*met(C)	*
=1-	=1-	=1-	=1-	=1-	=1-	=1-	=1-	=1-	=1-
!LO:TX:a:i:t=Quinta parte.	!	!LO:TX:a:i:t=Quinta parte.	!	!LO:TX:a:i:t=Quinta parte.	!	!LO:TX:a:i:t=Quinta parte.	!	!LO:TX:a:i:t=Quinta parte.	!
00r	.	00r	.	00r	.	0r	.	1dd	Non
.	.	.	.	.	.	.	.	2dd\	vi-
.	.	.	.	.	.	.	.	2dd\	-de'l
=2-	=2-	=2-	=2-	=2-	=2-	=2-	=2-	=2-	=2-
.	.	.	.	.	.	1r	.	2cc\	mon-
.	.	.	.	.	.	.	.	2b/	-do
.	.	.	.	.	.	1g	Non	4dd\	ſi
.	.	.	.	.	.	.	.	4dd\	leg-
.	.	.	.	.	.	.	.	2.gg\	-gia-
=3-	=3-	=3-	=3-	=3-	=3-	=3-	=3-	=3-	=3-
0r	.	00r	.	00r	.	2g\	vi-	.	.
.	.	.	.	.	.	.	.	8ff\	.
.	.	.	.	.	.	.	.	8ee\	.
.	.	.	.	.	.	2g\	-de'l	4dd\	.
.	.	.	.	.	.	.	.	4ee\	-dra
.	.	.	.	.	.	2f\	mon-	4.a/	ma-
.	.	.	.	.	.	.	.	8b/	.
.	.	.	.	.	.	2e/	-do	4cc\	.
!	!	!	!	!	!	!	!	!LO:SIC:v:t=custos b	!
.	.	.	.	.	.	.	.	4b/	-no
!	!	!	!	!	!	!	!	!LO:LB:g=original	!
=4-	=4-	=4-	=4-	=4-	=4-	=4-	=4-	=4-	=4-
1G	Non	.	.	.	.	4d/	ſi	2r	.
.	.	.	.	.	.	4d/	leg-	.	.
.	.	.	.	.	.	2.g\	-gia-	2b/	Non
2G/	vi-	.	.	.	.	.	.	2b/	vi-
.	.	.	.	.	.	8f\	.	.	.
.	.	.	.	.	.	8e\	.	.	.
2G/	-de'l	.	.	.	.	4d/	.	2b/	-de'l
.	.	.	.	.	.	4e/	-dra	.	.
=5-	=5-	=5-	=5-	=5-	=5-	=5-	=5-	=5-	=5-
2F/	mon-	1r	.	00r	.	4.A/	ma-	2a/	mon-
!	!	!	!	!	!	!LO:SIC:v:t=custos c	!	!	!
.	.	.	.	.	.	8B/	.	.	.
!	!	!	!	!	!	!LO:LB:g=original	!	!	!
2E/	-do	.	.	.	.	4c/	.	2g/	-do
.	.	.	.	.	.	4B/	-no	.	.
4G/	ſi	1g	Non	.	.	1r	.	4b/	ſi
4G/	leg-	.	.	.	.	.	.	4b/	leg-
2.c\	-gia-	.	.	.	.	.	.	2.ee\	-gia-
=6-	=6-	=6-	=6-	=6-	=6-	=6-	=6-	=6-	=6-
.	.	2g\	vi-	.	.	0r	.	.	.
8B\	.	.	.	.	.	.	.	8dd\	.
8A\	.	.	.	.	.	.	.	8cc\	.
4B\	.	2g\	-de'l	.	.	.	.	4dd\	.
!LO:SIC:v:t=custos A	!	!	!	!	!	!	!	!	!
4c\	-dra	.	.	.	.	.	.	4ee\	-dra
!LO:LB:g=original	!	!	!	!	!	!	!	!	!
1A	ma-	2f\	mon-	.	.	.	.	1cc	ma-
.	.	2e\	-do	.	.	.	.	.	.
=7-	=7-	=7-	=7-	=7-	=7-	=7-	=7-	=7-	=7-
1G	-no	4g\	ſi	1d	Non	1r	.	2.b/	-no
.	.	4d\	leg-	.	.	.	.	.	.
.	.	2.g\	-gia-	.	.	.	.	.	.
.	.	.	.	.	.	.	.	8a/	.
.	.	.	.	.	.	.	.	8g/	.
2r	.	.	.	2d\	vi-	2r	.	2a/	.
.	.	8f#X\	.	.	.	.	.	.	.
.	.	8e\	.	.	.	.	.	.	.
4r	.	4f#X\	.	2d\	-de'l	4r	.	4r	.
!	!	!LO:SIC:v:t=custos e	!	!	!	!	!	!	!
4G/	Ne	4g\	-dra	.	.	4d/	Ne	4b/	Ne
!	!	!LO:LB:g=original	!	!	!	!	!	!	!
=8-	=8-	=8-	=8-	=8-	=8-	=8-	=8-	=8-	=8-
4C/	co-	2e\	ma-	2c/	mon-	4.g\	co-	4ee\	co-
!	!	!	!	!	!	!	!	!LO:SIC:v:t=custos gg	!
4E/	-pr'il	.	.	.	.	.	.	4gg\	-pr'il
.	.	.	.	.	.	8a\	-pr'il	.	.
!	!	!	!	!	!	!	!	!LO:LB:g=original	!
2G/	ciel	4d\	-no	2B/	-do	2b\	ciel	4.gg\	ciel
.	.	4g\	Ne	.	.	.	.	.	.
.	.	.	.	.	.	.	.	16ff\	.
.	.	.	.	.	.	.	.	16ee\	.
4r	.	4.g\	co-	4d\	ſi	4a\	mai	1dd	.
4d\	Ne	.	.	4d\	leg-	4.dd\	fe	.	.
.	.	8e\	-pr'il	.	.	.	.	.	.
4G/	co-	2d\	ciel	2.g\	-gia-	.	.	.	.
.	.	.	.	.	.	8cc\	fe-	.	.
4B\	-pr'il	.	.	.	.	8b\	-li-	.	.
.	.	.	.	.	.	8b\	-ce	.	.
=9-	=9-	=9-	=9-	=9-	=9-	=9-	=9-	=9-	=9-
2d\	ciel	2r	.	.	.	2.a\	col-	4r	.
.	.	.	.	8f\	.	.	.	4a/	mai
.	.	.	.	8e\	.	.	.	.	.
4D/	mai	4r	.	4f#X\	.	.	.	4.dd\	ſi
4.G/	ſi	4d\	Ne	2g\	-dra	4b\	-le	.	.
.	.	.	.	.	.	.	.	8cc\	fe-
.	.	4G/	co-	.	.	4r	.	4b/	-li-
8E/	fe-	.	.	.	.	.	.	.	.
!	!	!	!	!LO:SIC:v:t=custos A	!	!	!	!	!
8E/	-li-	4B/	-pr'il	4G/	ma-	4e/	Ne	4gg\	-ce
8E/	-ce	.	.	.	.	.	.	.	.
!	!	!	!	!LO:LB:g=original	!	!	!	!	!
2D/	col-	2d\	ciel	2A/	-no	4f\	co-	2ff\	col-
!	!	!	!	!	!	!LO:SIC:v:t=custos cc	!	!	!
.	.	.	.	.	.	4a\	-pr'il	.	.
!	!	!	!	!	!	!LO:LB:g=original	!	!	!
=10-	=10-	=10-	=10-	=10-	=10-	=10-	=10-	=10-	=10-
2C/	-le	4G/	mai	4r	.	4.cc\	ciel	1ee	-le
.	.	4.c/	ſi	4g\	Ne	.	.	.	.
.	.	.	.	.	.	16b\	.	.	.
.	.	.	.	.	.	16a\	.	.	.
2r	.	.	.	4c/	co-	4g\	.	.	.
.	.	8B/	fe-	.	.	.	.	.	.
.	.	8A/	-li-	4e\	-pr'il	4a\	mai	.	.
.	.	8A/	-ce	.	.	.	.	.	.
1r	.	1G	col-	2g\	ciel	4.cc\	ſi	4r	.
.	.	.	.	.	.	.	.	4dd\	mai
.	.	.	.	.	.	8cc\	fe-	.	.
.	.	.	.	4d\	mai	2dd\	-li-	4.b/	ſi
.	.	.	.	4.g\	ſi	.	.	.	.
.	.	.	.	.	.	.	.	8cc\	fe-
=11-	=11-	=11-	=11-	=11-	=11-	=11-	=11-	=11-	=11-
1r	.	1G	-le	.	.	2g\	-ce	4dd\	-li-
.	.	.	.	8fny\	fe-	.	.	.	.
.	.	.	.	8e\	-li-	.	.	2cc\	-ce
.	.	.	.	8e\	-ce	.	.	.	.
.	.	.	.	2d\	col-	2g\	col-	.	.
.	.	.	.	.	.	.	.	4b/	col-
2r	.	2r	.	1c	-le	1g	-le	1cc	-le
!LO:SIC:v:t=custos A	!	!	!	!	!	!	!	!	!
2c\	Ei	2.e\	Ei	.	.	.	.	.	.
!LO:LB:g=original	!	!	!	!	!	!	!	!	!
=12-	=12-	=12-	=12-	=12-	=12-	=12-	=12-	=12-	=12-
2A\	ſe'l	.	.	1r	.	2r	.	2r	.
!	!	!LO:SIC:v:t=custos e	!	!	!	!	!	!	!
.	.	4fny\	ſe'l	.	.	.	.	.	.
!	!	!LO:LB:g=original	!	!	!	!	!	!	!
2c\	sà	2e\	sà	.	.	2cc\	Ei	2.ee\	Ei
2r	.	1r	.	2r	.	2a\	ſe'l	.	.
.	.	.	.	.	.	.	.	4ff\	ſe'l
!	!	!	!	!	!	!	!	!LO:SIC:v:t=custos dd	!
4r	.	.	.	4r	.	2cc\	sà	2ee\	sà
2c\	Sal-	.	.	2g\	Sal-	.	.	.	.
!	!	!	!	!	!	!	!	!LO:LB:g=original	!
=13-	=13-	=13-	=13-	=13-	=13-	=13-	=13-	=13-	=13-
.	.	2r	.	.	.	4g\	Sal-	2r	.
4A/	-lo_a-	.	.	4f#X\	-lo_a-	4a\	-lo_a-	.	.
2G/	-mor	4r	.	2g\	-mor	2b\	-mor	4r	.
.	.	2g\	Sal-	.	.	.	.	2dd\	Sal-
2r	.	.	.	2r	.	2r	.	.	.
.	.	4e\	-lo_a-	.	.	.	.	4cc#X\	-lo_a-
4r	.	2d\	-mor	4r	.	4r	.	4dd\	-mor
4.d\	fal-	.	.	4.fny\	ſal-	4.a\	ſal-	4.ff\	ſal-
=14-	=14-	=14-	=14-	=14-	=14-	=14-	=14-	=14-	=14-
.	.	0r	.	.	.	.	.	.	.
8d\	-l'_an-	.	.	8f\	-l'_an-	8a\	-l'_an-	8ff\	-lo_an-
!	!	!	!	!LO:SIC:v:t=custos g	!	!LO:SIC:v:t=custos b	!	!	!
4f\	-cor	.	.	4a\	-cor	4a\	-cor	4dd\	-cor
!	!	!	!	!LO:LB:g=original	!	!LO:LB:g=original	!	!	!
2e\	l'om-	.	.	2g#X\	l'om-	2b\	l'om-	2ee\	l'om-
4A/	-bra	.	.	2a\	-bra	4cc\	-bra	4ee\	-bra
4d\	Che	.	.	.	.	4a\	Che	4ff\	Che
4.d\	nel	.	.	2r	.	4a\	nel	4.ee\	nel
.	.	.	.	.	.	4g\	mio	.	.
8B\	mio	.	.	.	.	.	.	8dd\	mio
=15-	=15-	=15-	=15-	=15-	=15-	=15-	=15-	=15-	=15-
4A/	cor	4r	.	1r	.	2a\	cor	2ccny\	cor
4f\	ver-	4a\	Che	.	.	.	.	.	.
4.e\	-deg-	4.g\	nel	.	.	2b\	ver-	1r	.
!LO:SIC:v:t=custos c	!	!	!	!	!	!	!	!	!
8d\	-gia	8f\	mio	.	.	.	.	.	.
!LO:LB:g=original	!	!	!	!	!	!	!	!	!
4c\	not-	4e\	cor	4r	.	4.cc\	-deg-	.	.
4F/	-te_e	4f\	ver-	4a\	Che	.	.	.	.
.	.	.	.	.	.	8cc\	-gia	.	.
1c\	gior-	4.e\	-deg-	4.gny\	nel	4cc\	not-	2r	.
.	.	.	.	.	.	4cc\	-te_e	.	.
.	.	8d\	-gia	8f\	mio	.	.	.	.
=16-	=16-	=16-	=16-	=16-	=16-	=16-	=16-	=16-	=16-
.	.	4c/	not-	4e\	cor	2cc\	gior-	4r	.
.	.	4F/	-te_e	4f\	ver-	.	.	4aa\	Che
2C/	-no	2c/	gior-	4.e\	-deg-	2cc\	-no	4.gg\	nel
.	.	.	.	8d\	-gia	.	.	8ff\	mio
1r	.	4g\	-no	4c/	not-	4r	.	4ee\	cor
!	!	!LO:SIC:v:t=custos g	!	!	!	!	!	!LO:SIC:v:t=custos ee	!
.	.	4a\	ver-	4F/	-te_e	4c/	ver-	4ff\	ver-
!	!	!LO:LB:g=original	!	!	!	!	!	!LO:LB:g=original	!
.	.	4.g\	-deg-	2c/	gior-	4.e/	-deg-	4.ee\	-deg-
.	.	8f\	-gia	.	.	8f\	-gia	8dd\	-gia
=17-	=17-	=17-	=17-	=17-	=17-	=17-	=17-	=17-	=17-
00r	.	4e\	not-	2c\	-no	4g\	not-	4.cc\	not-
.	.	4g\	-te_e	.	.	4e/	-te e	.	.
.	.	.	.	.	.	.	.	8b/	-te_e
.	.	2d\	gior-	2r	.	2f#X\	gior-	2a/	gior-
!	!	!	!	!	!	!LO:SIC:v:t=custos b	!	!	!
.	.	2d\	-no	2r	.	2f#\	-no	2a/	-no
!	!	!	!	!	!	!LO:LB:g=original	!	!	!
.	.	4r	.	4r	.	4r	.	4r	.
.	.	4.G/	l'om-	4.g\	l'om-	4.b\	l'om-	4.dd\	l'om-
=18-	=18-	=18-	=18-	=18-	=18-	=18-	=18-	=18-	=18-
.	.	.	.	.	.	.	.	.	.
.	.	8G/	-bra	8g\	-bra	8b\	-bra	8dd\	-bra-
!	!	!	!	!LO:SIC:v:t=custos g	!	!	!	!	!
.	.	4G/	che	4g\	che	4b\	che	4dd\	-ch[e]
!	!	!	!	!LO:LB:g=original	!	!	!	!	!
.	.	2c/	ſo-	2g\	ſo-	2cc\	ſo-	2ee\	ſo-
.	.	4e\	-pr'al	4g\	-pr'al	4g\	-pr'al	4b/	-pr'al
.	.	2d\	Po	2f\	Po	2a\	Po	2dd\	Po
.	.	4c/	ſi	4g\	ſi	4cc\	ſi	4ee\	ſi
=19-	=19-	=19-	=19-	=19-	=19-	=19-	=19-	=19-	=19-
00r	.	2f\	lon-	2a\	lun-	2cc\	lon-	1.ff	lon-
.	.	2B-X/	-go	2d\	-go	2b-X\	-go	.	.
.	.	1.B-	tem-	1d	tem-	1b-	tem-	.	.
.	.	.	.	.	.	.	.	2ee\	-go
=20-	=20-	=20-	=20-	=20-	=20-	=20-	=20-	=20-	=20-
.	.	.	.	1d	-po	1fny	-po	2dd\	tem-
.	.	2A/	-po	.	.	.	.	2cc\	-po
.	.	1G	Pian-	1d	Pian-	1g	Pian-	1b	Pian-
=21-	=21-	=21-	=21-	=21-	=21-	=21-	=21-	=21-	=21-
!	!	!LO:SIC:v:t=custos F	!	!	!	!	!	!	!
0r	.	2G/	ſe	1.d	ſe	2g\	-ſe	2b/	ſe
!	!	!LO:LB:g=original	!	!	!	!	!	!LO:SIC:v:t=custos b	!
.	.	2F#X/	Fe-	.	.	2a\	Fe-	2a/	Fe-
!	!	!	!	!	!	!	!	!LO:LB:g=original	!
.	.	0G	-ton-	.	.	0g	-ton-	2b/	-ton-
.	.	.	.	2c/	Fe-	.	.	1cc\	.
=22-	=22-	=22-	=22-	=22-	=22-	=22-	=22-	=22-	=22-
1r	.	.	.	1d	-ton-	.	.	.	.
.	.	.	.	.	.	.	.	2b\	-te
4r	.	1c	-te	1.e	-te	1g	-te	4r	.
4c\	e'l	.	.	.	.	.	.	4ee\	e'l
4c\	ru-	.	.	.	.	.	.	4ee\	ru-
4c\	-i-	.	.	.	.	.	.	4ee\	-i-
=23-	=23-	=23-	=23-	=23-	=23-	=23-	=23-	=23-	=23-
4.c\	-nar	2r	.	.	.	4r	.	4.ee\	-nar
.	.	.	.	.	.	4g\	e'l	.	.
16B\	.	.	.	.	.	.	.	16dd\	.
16A\	.	.	.	.	.	.	.	16cc\	.
8G/	.	4r	.	2r	.	4g\	ru-	8b/	.
8F/	.	.	.	.	.	.	.	8a/	.
!	!	!	!	!	!	!LO:SIC:v:t=custos cc	!	!	!
8E/	.	4g\	e'l	.	.	4bny\	-i-	8g/	.
8D/	.	.	.	.	.	.	.	8f/	.
!	!	!	!	!	!	!LO:LB:g=original	!	!	!
2C/	.	4g\	ru-	2r	.	4.cc\	-nar	4e/	.
.	.	4g\	-i-	.	.	.	.	4e/	del
.	.	.	.	.	.	16b\	.	.	.
.	.	.	.	.	.	16a\	.	.	.
2C/	del	4.g\	-nar	4r	.	8g\	.	2e/	ſo-
.	.	.	.	.	.	8f\	.	.	.
.	.	.	.	4g\	e'l	8e\	.	.	.
.	.	8f\	.	.	.	8d/	.	.	.
=24-	=24-	=24-	=24-	=24-	=24-	=24-	=24-	=24-	=24-
1C	ſo-	4e\	.	4g\	ru-	4c/	.	4g/	-le
.	.	4c/	del	4g\	-i-	4e/	del	4gg\	e'l
.	.	2c/	ſo-	4.g\	-nar	2e/	ſo-	4gg\	ru-
.	.	.	.	.	.	.	.	4gg\	-i-
.	.	.	.	16f\	.	.	.	.	.
!	!	!	!	!LO:SIC:v:t=custos d	!	!	!	!	!
.	.	.	.	16e\	.	.	.	.	.
!LO:SIC:v:t=custos d	!	!	!	!LO:LB:g=original	!	!	!	!	!
0G	-le	4Bny/	-le	8d\	.	4g\	-le	4.gg\	-nar
.	.	.	.	8c/	.	.	.	.	.
.	.	4g\	e'l	8B/	.	4d/	e'l	.	.
.	.	.	.	8A/	.	.	.	16ff\	.
!	!	!	!	!	!	!	!	!LO:SIC:v:t=custos dd	!
.	.	.	.	.	.	.	.	16ee\	.
!	!	!	!	!	!	!	!	!LO:LB:g=original	!
.	.	4g\	ru-	4B/	.	4d/	ru-	8dd\	.
.	.	.	.	.	.	.	.	8cc\	.
.	.	4g\	i-	4G/	del	4d/	-i-	8b\	.
.	.	.	.	.	.	.	.	8a/	.
=25-	=25-	=25-	=25-	=25-	=25-	=25-	=25-	=25-	=25-
.	.	4.g\	-nar	1B	ſo-	2d/	-nar	2g/	.
.	.	16f\	.	.	.	.	.	.	.
!	!	!LO:SIC:v:t=custos d	!	!	!	!	!	!	!
.	.	16e\	.	.	.	.	.	.	.
!	!	!LO:LB:g=original	!	!	!	!	!	!	!
.	.	8d\	.	.	.	2g\	del	4r	.
.	.	8c\	.	.	.	.	.	.	.
.	.	8B/	.	.	.	.	.	4dd\	e'l
.	.	8A/	.	.	.	.	.	.	.
!LO:LB:g=original	!	!	!	!	!	!	!	!	!
4r	.	4G/	.	2d\	-le	2b#X\	ſo-	4dd\	ru-
4d\	e'l	4G/	del	.	.	.	.	4dd\	-i-
4d\	ru-	2G/	ſo-	4r	.	2b#\	-le	4.dd\	-nar
4d\	-i-	.	.	4g\	e'l	.	.	.	.
.	.	.	.	.	.	.	.	16cc\	.
.	.	.	.	.	.	.	.	16b\	.
=26-	=26-	=26-	=26-	=26-	=26-	=26-	=26-	=26-	=26-
4.d\	-nar	2d\	-ie	4f\	ru-	4r	.	2a/	.
!	!	!	!	!	!	!LO:SIC:v:t=custos cc	!	!	!
.	.	.	.	4f\	-i-	4a\	e'l	.	.
16c\	.	.	.	.	.	.	.	.	.
16B\	.	.	.	.	.	.	.	.	.
!	!	!	!	!	!	!LO:LB:g=original	!	!	!
8A/	.	4r	.	4.a\	-nar	4cc\	ru-	2r	.
8G/	.	.	.	.	.	.	.	.	.
8F/	.	4a\	e'l	.	.	4cc\	-i-	.	.
8E/	.	.	.	8g\	.	.	.	.	.
2D/	.	4a\	ru-	8f\	.	4.dd\	-nar	4r	.
.	.	.	.	8e\	.	.	.	.	.
.	.	4a\	-i-	2d\	.	.	.	4dd\	e'l
.	.	.	.	.	.	16cc\	.	.	.
.	.	.	.	.	.	16bny\	.	.	.
2D/	del	4.a\	-nar	.	.	8a\	.	4dd\	ru-
.	.	.	.	.	.	8g\	.	.	.
.	.	.	.	4d\	del	8f\	.	4dd\	-i-
.	.	8g\	.	.	.	8e\	.	.	.
=27-	=27-	=27-	=27-	=27-	=27-	=27-	=27-	=27-	=27-
0D	fo-	8f\	.	0A	fo-	2d/	.	4.dd\	-nar
.	.	8e\	.	.	.	.	.	.	.
.	.	2d\	.	.	.	.	.	.	.
.	.	.	.	.	.	.	.	16cc\	.
.	.	.	.	.	.	.	.	16b\	.
.	.	.	.	.	.	2f\	del	8a/	.
.	.	.	.	.	.	.	.	8g/	.
.	.	4d\	del	.	.	.	.	8f/	.
!	!	!	!	!	!	!	!	!LO:SIC:v:t=custos d	!
.	.	.	.	.	.	.	.	8e/	.
!	!	!	!	!	!	!	!	!LO:LB:g=original	!
.	.	1f	fo-	.	.	1a	fo-	4d/	.
.	.	.	.	.	.	.	.	4dd\	del
.	.	.	.	.	.	.	.	1dd\	ſo-
=28-	=28-	=28-	=28-	=28-	=28-	=28-	=28-	=28-	=28-
0Al/	-le.	0el	-le.	0Al	-le.	0al	-le.	.	.
.	.	.	.	.	.	.	.	4cc#X\	.
.	.	.	.	.	.	.	.	4b/	.
.	.	.	.	.	.	.	.	1cc#Xl	-le.
==	==	==	==	==	==	==	==	==	==
*-	*-	*-	*-	*-	*-	*-	*-	*-	*-
!!!system-decoration: [(*)]
!!!RDF**kern: l = terminal long
!!!ENC: Marta Opryszak
!!!END: 2022-06-07
!!!ENC: Andrzej Kubiczek
!!!END: 2022-07-21
